X:13016
T:Mist Covered Mountains
T:Chi Mi Na Morbheanna
R:Air
C:Trad.
O:Scotland
M:3/4
L:1/8
Q:1/4=140
K:Am
"Am"A6|A6|"C"e3 e e2|"Em"e2 d2 B2|"G"G6|G6|"Bm"B3 A B2|"Am"A3 G A2|
"Am"c6|"G"d6|"C"e3 ^f g2|"Em"B3 A G2|"Am"A3 B e2|"G"d2 c2 B2|"Am"A6|A6||
"Am"e6|e6|"G"d3 e g2|"Am"e3 d B2|"G"G4 G2|"Bm"d4 B2|"Am"e4 e2|"Bm"d3 c B2|
"Am"A6|c6|"G"d3 e g2|"Em"B3 A G2|"Am"A3 B e2|"G"d2 c2 B2|"Am"A6|A6|]

